src/img/health-icon.svg

<?xml version="1.0" encoding="UTF-8"?>
<svg width="70px" height="61px" viewBox="0 0 70 61" version="1.1" xmlns="http://www.w3.org/2000/svg" xmlns:xlink="http://www.w3.org/1999/xlink">
    <!-- Generator: Sketch 64 (93537) - https://sketch.com -->
    <title>Group 9</title>
    <desc>Created with Sketch.</desc>
    <g id="Final-Pages" stroke="none" stroke-width="1" fill="none" fill-rule="evenodd">
        <g id="Slide1" transform="translate(-1061.000000, -720.000000)" fill="#302E2F">
            <g id="Group" transform="translate(1045.000000, 700.000000)">
                <g id="Group-9" transform="translate(16.000000, 20.000000)">
                    <path d="M52.6615898,58.6956459 L48.9935055,58.6956459 C46.659002,58.6956459 44.5017803,57.7494875 42.9204263,56.0314333 C41.4075978,54.3878726 40.6097944,52.3137101 40.7689619,49.7396479 L41.4081595,39.6934193 C41.7795035,39.9168295 42.1626429,40.0873009 42.5400251,40.2818546 C43.3753912,40.7116138 44.2518305,41.1613831 45.679985,41.5842618 C45.7765246,43.6139809 46.6787312,46.6103601 49.7177984,47.3116941 C51.0640171,47.6218847 51.4861234,45.6116138 50.1799248,45.3099188 C48.4488816,44.9108415 47.9375376,43.2300692 47.7892528,42.0570602 C49.2242177,42.2915637 50.3737061,42.2932487 50.3876078,42.2935296 C50.9555416,42.2935296 51.4151404,41.8339308 51.4151404,41.2669097 C51.4151404,40.6998185 50.9555416,40.2402197 50.3876078,40.2402197 L50.3591725,40.2393771 C45.7092628,40.1771705 41.3039669,37.7834794 37.9660832,34.2579228 C36.3134654,32.5126269 33.5122718,32.5126269 31.8593731,34.2579228 C25.8227332,40.6345928 19.6417402,40.195004 19.4372869,40.2402197 C18.8701956,40.2402197 18.4103862,40.6998185 18.4103862,41.2671906 C18.4103862,41.8339308 18.8701956,42.2943019 19.4372869,42.2943019 C19.4701454,42.2918445 20.5091224,42.306659 21.9605868,42.0764383 C21.8096339,43.2475517 21.2935155,44.9132989 19.572653,45.3099188 C18.2664544,45.6116138 18.6874373,47.6221655 20.0344283,47.3116941 C23.0637362,46.6130983 23.9681194,43.6347633 24.070346,41.6056058 C24.9186309,41.3583942 25.7515396,41.0383039 26.5723721,40.6579027 C26.585993,40.6524263 28.3194935,39.7534493 28.5544183,39.6093069 C29.3086209,51.4215436 29.1842076,49.5439709 29.2028134,49.7590963 C29.5993631,54.5476018 25.836986,58.6948034 20.9761635,58.6948034 L17.712001,58.6948034 C17.1446991,58.6948034 16.6845386,59.1555256 16.6845386,59.721985 C16.6845386,60.2898485 17.1446991,60.7494473 17.712001,60.7494473 L20.9761635,60.7494473 C26.9922317,60.7494473 31.7414895,55.6021655 31.2500853,49.5995777 L30.522984,38.2076921 C31.4899248,37.4532086 32.4395236,36.6329378 33.3505767,35.6698586 C33.7592026,35.2384845 34.3138666,35.0011023 34.9130441,35.0011023 C36.4008776,35.0011023 36.2723922,35.897341 39.4367854,38.3285948 L38.7192327,49.5995777 C38.4849398,52.4603099 39.4652909,55.3111424 41.4094935,57.4225868 C43.3553811,59.5369799 46.1195737,60.7494473 48.9935055,60.7494473 L52.6615898,60.7494473 C53.2288917,60.7494473 53.6884905,60.2898485 53.6884905,59.721985 C53.6884905,59.1555256 53.2288917,58.6956459 52.6615898,58.6956459" id="Fill-1"></path>
                    <path d="M69.9028917,56.3285085 C67.7580271,40.3101635 65.7321695,25.1805446 55.78901,18.5911364 C54.4717884,17.7179268 52.9339649,17.2564323 51.342009,17.2564323 C47.2468335,17.2564323 40.9150983,20.3657101 40.5587793,24.6611264 L40.3321394,27.3982879 C39.5820792,26.3107252 39.0209559,25.5127111 39.0209559,24.1938746 L39.0209559,1.09745537 C39.0209559,0.529872618 38.5611464,0.0702036108 37.9937743,0.0702036108 C37.4267533,0.0702036108 36.9668034,0.529872618 36.9668034,1.09745537 L36.9668034,24.1938746 C36.9668034,25.3235637 37.2787492,26.4261515 37.8685186,27.3831926 C38.5874754,28.5504443 39.6642257,29.9837944 40.3644363,30.7854594 C41.9430522,32.5918385 43.4285687,33.7206851 44.9375356,34.5676359 C45.0090802,34.6078666 45.0764824,34.6706349 45.1491505,34.7092508 C45.1905045,34.738318 45.4163721,34.8471444 45.4974654,34.8677161 C46.9525105,35.5947472 48.8215878,36.1317182 50.4296219,36.1317182 C50.5808556,36.1317182 50.689682,36.0311063 50.8201334,35.9710762 C50.9298024,35.9215075 51.0634835,35.9209458 51.1479468,35.8365527 C51.795008,35.2014975 51.3570341,34.0899228 50.4427513,34.0778465 C49.9507854,34.0709659 49.4678766,33.9662818 48.9830722,33.8777462 C49.9236138,33.220013 50.8768636,32.1585687 51.3469238,30.4198726 C51.4948576,29.8720191 51.1709057,29.3085085 50.6236138,29.1599428 C50.0757603,29.0125005 49.5122497,29.3361715 49.3640351,29.8835336 C48.6848877,32.3955998 46.6559408,32.8014875 46.10233,32.8688897 C44.6155496,32.068348 43.3118084,30.9732026 42.1982678,29.7478867 L42.6066128,24.8305446 C42.8538245,21.8371846 48.1479168,19.3102337 51.342009,19.3102337 C52.5289198,19.3102337 53.6748275,19.6537041 54.6540552,20.3032227 C63.8191404,26.3776359 65.785319,41.058328 67.8665727,56.6009258 L67.9007653,56.8536138 C67.9638847,57.3252889 67.825991,57.7818686 67.512992,58.1389599 C67.1991505,58.4982979 66.7645466,58.69566 66.2882377,58.69566 L57.1809358,58.69566 C56.6130722,58.69566 56.1534734,59.1555396 56.1534734,59.7225607 C56.1534734,60.2898626 56.6130722,60.7497422 57.1809358,60.7497422 L66.2882377,60.7497422 C67.3502437,60.7497422 68.3595918,60.2911966 69.0587492,59.4920592 C69.7576259,58.6932026 70.0771545,57.6324604 69.9370843,56.5809157 L69.9028917,56.3285085 Z" id="Fill-3"></path>
                    <path d="M15.3161194,20.3032227 C16.2956279,19.6537041 17.4404122,19.3102337 18.6285165,19.3102337 C21.8219067,19.3102337 27.1155777,21.8371846 27.3638425,24.8305446 L27.7584965,29.5935637 C27.4022477,29.9917984 27.0360291,30.3135035 26.6731805,30.6585888 C25.7901414,31.4971846 26.1738425,31.2965928 24.560683,32.3438546 C24.2907232,32.5189599 24.025678,32.7387894 23.7524885,32.8867232 C23.3405627,32.8494413 21.1014052,32.5205747 20.387995,29.8835336 C20.239991,29.3361715 19.6762698,29.0127813 19.1286971,29.1599428 C18.5810542,29.3085085 18.2568917,29.8720191 18.4051765,30.4198726 C18.8762899,32.1612367 19.8313651,33.2235938 20.7735918,33.8818887 C20.3107633,33.9616479 19.8510943,34.0712467 19.3827192,34.0778465 C18.4727894,34.0899228 18.0277944,35.1998124 18.6780853,35.8371143 C18.7422578,35.9000933 18.8469418,35.8940552 18.9258586,35.9384985 C19.0881153,36.030334 19.2155476,36.1347372 19.410663,36.1317182 C20.912328,36.1114273 23.3522879,35.4358606 24.625347,34.761347 C27.7351866,33.1136439 30.299349,30.0802638 31.9591284,27.3842457 C32.5475637,26.4280471 32.8583159,25.3263019 32.8583159,24.1982979 L32.8583159,1.09745537 C32.8583159,0.529872618 32.3984363,0.0702036108 31.8316961,0.0702036108 C31.2641133,0.0702036108 30.8045145,0.529872618 30.8045145,1.09745537 L30.8045145,24.1982979 C30.8045145,25.8541454 29.8778746,26.7270742 29.613672,27.117656 L29.4105527,24.6611264 C29.0545848,20.3657101 22.7230602,17.2564323 18.6279549,17.2564323 C17.0353671,17.2564323 15.4975436,17.7176459 14.1803922,18.5911364 C3.62583852,25.5866429 1.86741324,42.8857703 0.0330902708,56.5816881 C-0.262075226,58.7869338 1.45710231,60.7497422 3.68116449,60.7497422 L11.8231404,60.7497422 C12.3904423,60.7497422 12.8500411,60.2898626 12.8500411,59.7225607 C12.8500411,59.1555396 12.3904423,58.69566 11.8231404,58.69566 L3.68116449,58.69566 C3.20590873,58.69566 2.77039218,58.4982979 2.45718255,58.1400832 C1.86081344,57.4587593 2.10718255,56.7160712 2.10282949,56.6006449 C4.18408325,41.0580471 6.15026179,26.3773551 15.3161194,20.3032227" id="Fill-6"></path>
                </g>
            </g>
        </g>
    </g>
</svg>

<svg width="70" height="61" xmlns="http://www.w3.org/2000/svg"><g fill="#302E2F" fill-rule="evenodd"><path d="M52.662 58.696h-3.668a8.167 8.167 0 01-6.074-2.665c-1.512-1.643-2.31-3.717-2.151-6.291l.64-10.047c.37.224.754.394 1.131.589.835.43 1.712.88 3.14 1.302.097 2.03.999 5.026 4.038 5.728 1.346.31 1.768-1.7.462-2.002-1.731-.4-2.242-2.08-2.39-3.253 1.434.235 2.584.236 2.598.237a1.027 1.027 0 100-2.054h-.029c-4.65-.063-9.055-2.457-12.393-5.982a4.216 4.216 0 00-6.107 0c-6.036 6.377-12.217 5.937-12.422 5.982a1.027 1.027 0 100 2.054c.033-.002 1.072.013 2.524-.218-.151 1.172-.667 2.837-2.388 3.234-1.307.302-.886 2.312.461 2.002 3.03-.699 3.934-3.677 4.036-5.706a17.794 17.794 0 002.502-.948c.014-.006 1.747-.905 1.982-1.049.755 11.813.63 9.935.649 10.15.396 4.789-3.366 8.936-8.227 8.936h-3.264a1.028 1.028 0 000 2.054h3.264c6.016 0 10.765-5.147 10.274-11.15l-.727-11.391a25.015 25.015 0 002.828-2.538 2.13 2.13 0 011.562-.67c1.488 0 1.36.896 4.524 3.328l-.718 11.27a10.334 10.334 0 002.69 7.824 10.334 10.334 0 007.585 3.326h3.668a1.027 1.027 0 100-2.053"/><path d="M69.903 56.329C67.758 40.31 65.733 25.18 55.789 18.59a8.022 8.022 0 00-4.447-1.335c-4.095 0-10.427 3.11-10.783 7.405l-.227 2.737c-.75-1.087-1.311-1.885-1.311-3.204V1.097a1.027 1.027 0 10-2.054 0v23.097c0 1.13.312 2.232.902 3.19a29.459 29.459 0 002.495 3.401c1.58 1.807 3.065 2.936 4.574 3.783.071.04.138.103.211.141.042.03.267.138.348.159 1.456.727 3.325 1.264 4.933 1.264.15 0 .26-.1.39-.16.11-.05.243-.051.328-.135.647-.636.209-1.747-.705-1.76-.492-.006-.975-.11-1.46-.2.94-.657 1.894-1.718 2.364-3.457a1.028 1.028 0 00-1.983-.536c-.68 2.512-2.708 2.917-3.262 2.985-1.486-.8-2.79-1.896-3.904-3.121l.409-4.917c.247-2.994 5.54-5.52 8.735-5.52 1.187 0 2.333.343 3.312.992 9.165 6.075 11.131 20.755 13.213 36.298l.034.253c.063.471-.075.928-.388 1.285-.314.36-.748.557-1.225.557h-9.107a1.027 1.027 0 100 2.054h9.107a3.68 3.68 0 003.65-4.17l-.035-.251zM15.316 20.303a5.972 5.972 0 013.313-.993c3.193 0 8.487 2.527 8.735 5.52l.394 4.764c-.356.398-.722.72-1.085 1.065-.883.838-.5.638-2.112 1.685-.27.175-.535.395-.809.543-.411-.038-2.65-.366-3.364-3.003a1.028 1.028 0 00-1.983.536c.471 1.741 1.426 2.804 2.369 3.462-.463.08-.923.19-1.391.196-.91.012-1.355 1.122-.705 1.76.064.062.169.056.248.1.162.092.29.197.485.194 1.501-.02 3.941-.696 5.214-1.37 3.11-1.648 5.674-4.682 7.334-7.378a6.07 6.07 0 00.9-3.186v-23.1a1.027 1.027 0 10-2.054 0v23.1c0 1.656-.927 2.53-1.191 2.92l-.203-2.457c-.356-4.295-6.688-7.405-10.783-7.405a8.02 8.02 0 00-4.448 1.335C3.626 25.587 1.867 42.886.033 56.581a3.682 3.682 0 003.648 4.169h8.142a1.027 1.027 0 000-2.054H3.681c-.475 0-.91-.198-1.224-.556-.596-.681-.35-1.424-.354-1.54C4.184 41.059 6.15 26.378 15.316 20.304"/></g></svg>
